X:1
T:Quem tremuit impia
T:Heinrich Isaac
T:Source : Trium vocum cantiones---Nürnberg---J.Petreius---1541. Editor : André Vierendeels (30/08/15).
T:Notes : Original clefs : C1, C1, F3 Editorial accidentals above the staff Original note values have been halved Square brackets indicate ligatures
T:Quem tremunt impia
C:Heinrich Isaac
%%score [ 1 2 3 ]
L:1/8
Q:1/4=84
M:2/2
K:C
V:1 treble nm="Discantus 1" snm="D 1"
V:2 treble nm="Discantus 2" snm="D 2"
V:3 treble-8 nm="Tenor" snm="T"
V:1
 G4 F4 | E4 F2 D2- | DC C4 B,2 | C2 E2 D4 | C4 c4 | B4 G4 | A8 | G3 A B2 c2- | cBAG A4 | F4 z2 A2 | %10
w: Quem tre-|||munt im- pi-|a, quem|tre- *||||munt im-|
 B2 A4 GF | E2 C2 E3 F | G3 A B2 c2- | c2 B2 A4 | G4 c4 | B4 A4 | G4 A4- | A4 z2 G2 | E2 G3 FED | %19
w: pi- a _ _|_ _ tar- *||* * ta-|ra, hunc|quo- que|co- lit|_ et|a- bis- * * *|
 C2 G2 A2 c2- | c2 B2 c2 A2- | AG G4 F2 | G2 E2 F4 | z2 D2 E3 F | G2 FE D4 | C2 c2 B2 G2 | A4 B4- | %27
w: |* * sus in-|* * * fir-|* * ma,|a- bis- *||sus in- fir- *|* ma.|
 B8 |] %28
w: _|
V:2
 z8 | G4 F4 | E4 F2 D2- | D2 C4 B,2 | C4 z2 E2 | D2 G4 FE | FEDC D4 | E8 | C4 z2 C2 | D2 F3 EDC | %10
w: |Quem tre-|munt im- pi-||a, quem|tre- * * *|||munt im-||
 B,2 C4 B,2 | C4 z2 C2 | E3 F G2 A2- |"^#" AG G4 F2 | G8 | G4 A4 | B4 c4- | c4 B4 | z2 G2 E2 G2- | %19
w: * * pi-|a tar-|ta- * * *||ra,|hunc quo-|que co-|* lit|et a- bis-|
 GFED C2 E2 | D4 C4 | z2 G2 A2 c2 | B4 A4 | G4 z4 | z2 G2 A2 B2 | c2 A3 G G2- |"^#" G2 F2 G4- | %27
w: |* sus,|a- bis- sus|in- fir-|ma,|a- bis- sus|in- * * fir-|* * ma.|
 G8 |] %28
w: _|
V:3
 z8 | z8 | z8 | z8 | z8 | G8 | F8 | E8 | F8 | D8 | D8 | C8 | z8 | z8 | z4 C4 | E4 F4 | G4 F4- | %17
w: |||||Quem|tre-|munt|_|im-|pi-|a|||tar-|ta- ra,|co- lit|
 F4 G4- | G8 | E4 z4 | G4 A4 | c4 A4 | G4 F4 | G4 G4- | G4 z2 G2 | A2 F2 G2 E2 | D4 G4- | G8 |] %28
w: _ quo-||que,|et a-|bis- sus|in- *|fir- ma,|_ et|a- bis- sus in-|fir- ma.|_|

